other/boat_wearables.svg

<?xml version="1.0" encoding="UTF-8"?><svg id="a" xmlns="http://www.w3.org/2000/svg" viewBox="0 0 48 48"><defs><style>.b{fill:none;stroke:#fff;stroke-linecap:round;stroke-linejoin:round;}</style></defs><path class="b" d="m44.72,22.85c1.1805,11.5093-7.253,21.6042-18.8366,22.5475-11.5837.9433-21.931-7.6221-23.1115-19.1314C1.5914,14.7568,10.0248,4.6619,21.6085,3.7186c4.0257-.3278,8.0843.5023,11.6915,2.3914"/><path class="b" d="m37.99,7.31h0c.6385-.3967,1.4774-.2048,1.88.43l5.22,8.33c.4033.6402.2112,1.4861-.429,1.8894-.0003.0002-.0007.0004-.001.0006h0c-.6411.3949-1.4807.1984-1.88-.44l-5.22-8.33c-.3967-.6385-.2048-1.4774.43-1.88Z"/><path class="b" d="m30.1,35.6l-13.78.12-2.76-5.75,19.65.1-3.11,5.53Z"/><path class="b" d="m23.6,12.31l4.97,13.28-10.83,3.31,5.86-16.59Z"/></svg>

<svg xmlns="http://www.w3.org/2000/svg" viewBox="0 0 48 48"><defs><style>.a{fill:none;stroke:#fff;stroke-linecap:round;stroke-linejoin:round;}</style></defs> <path class="a"                    d="M44.72,22.85A20.77 21.22 303.67 1 1 33.30,6.11"/> <path class="a"                    d="M37.99,7.31L37.99,7.31A1.37 1.37 0 0 1 39.87,7.74L45.09,16.07A1.37 1.37 0 0 1 44.66,17.96L44.66,17.96A1.37 1.37 0 0 1 42.78,17.52L37.56,9.19A1.37 1.37 0 0 1 37.99,7.31z"/> <path class="a"                    d="M30.10,35.60L16.32,35.72L13.56,29.97L33.21,30.07L30.10,35.60z"/> <path class="a"                    d="M23.60,12.31L28.57,25.59L17.74,28.90L23.60,12.31z"/></svg>
